src/img/instagram.svg

<svg height="28" viewBox="0 0 28 28" width="28" xmlns="http://www.w3.org/2000/svg"><path d="m14 0c7.7319865 0 14 6.2680135 14 14s-6.2680135 14-14 14-14-6.2680135-14-14 6.2680135-14 14-14zm.8851003 7.00090704h-1.7702261c-1.119464.00288295-1.3900907.01334493-2.0009652.04121736-.7450962.03401073-1.25392341.15232583-1.69920277.32538043-.46031189.17888977-.85068504.41824305-1.23983559.8073936-.38915054.38915055-.62850383.7795237-.8073936 1.23983558-.17305459.44527937-.2913697.95410659-.32538043 1.69920269-.02787243.6108518-.0383158.881493-.04119199 2.000963v1.7702284c.00287619 1.11947.01331956 1.3901111.04119199 2.0009629.03401073.7450962.15232584 1.2539234.32538043 1.6992028.17888977.4602841.41824306.850685.8073936 1.2398356.38915055.3891505.7795237.6285038 1.23983559.8073936.44527936.1730546.95410657.2913697 1.69920277.3253804.7466244.0340663.9849774.0420966 2.8860771.0420966 1.9010998 0 2.1394805-.0080303 2.8860772-.0420966.7450961-.0340107 1.2539233-.1523258 1.6992027-.3253804.4603119-.1788898.850685-.4182431 1.2398356-.8073936.3891505-.3891506.6285038-.7795237.8073936-1.2398356.1730546-.4452794.2913697-.9541066.3253804-1.6992028.0340663-.7465966.0421244-.9849774.0421244-2.8860771 0-1.9010998-.0080581-2.1394805-.0421244-2.8860772-.0340107-.7450961-.1523258-1.25392332-.3253804-1.69920269-.1788898-.46031188-.4182431-.85068503-.8073936-1.23983558-.3891506-.38915055-.7795237-.62850383-1.2398356-.8073936-.4452794-.1730546-.9541066-.2913697-1.6992027-.32538043-.6108518-.02787243-.881493-.03833441-2.000963-.04121736zm1.9434726 1.3011704c.6824931.03114872 1.0531378.14518469 1.2998267.24102048.3267142.12698451.5599267.27869904.8048651.52363742.2449383.24493838.3966529.47815084.5236096.80486503.0958636.24668893.2098995.61733363.2410483 1.29979893.0290849.6374928.0383566.8895404.0403445 2.1504165v1.3563961c-.0019879 1.2608757-.0112596 1.51292-.0403445 2.1503888-.0311488.6824931-.1451847 1.0531378-.2410483 1.2998267-.1269567.3267142-.2786713.5599267-.5236096.804865-.2449384.2449384-.4781509.396653-.8048651.5236097-.2466889.0958636-.6173336.2098995-1.2998267.2410482-.6373728.029085-.889404.0383567-2.1503495.0403446h-1.3564746c-1.2609455-.0019879-1.5129767-.0112596-2.1503495-.0403446-.6824931-.0311487-1.0531378-.1451846-1.29979893-.2410482-.32674197-.1269567-.55995443-.2786713-.80489282-.5236097-.24493838-.2449383-.39665291-.4781508-.52360963-.804865-.09586357-.2466889-.20989955-.6173336-.24104827-1.2997989-.02908493-.6374928-.03835668-.8895404-.0403445-2.1504165v-1.3563961c.00198782-1.2608757.01125957-1.51292.0403445-2.1503888.03114872-.6824931.1451847-1.0531378.24104827-1.29982673.12695672-.32671419.27867125-.55992665.52360963-.80486503.24493839-.24493838.47815085-.39665291.80489282-.52363742.24666113-.09583579.61730583-.20987176 1.29977113-.24102048.6374928-.02908493.8895404-.03835668 2.1504165-.04034451h1.3563961c1.2608757.00198783 1.51292.01125958 2.1503888.04034451zm-2.814684 2.11458926c-1.9866822 0-3.5972222 1.61054-3.5972222 3.5972222s1.61054 3.5972222 3.5972222 3.5972222 3.5972222-1.61054 3.5972222-3.5972222-1.61054-3.5972222-3.5972222-3.5972222zm0 1.2621769c1.2895944 0 2.3350453 1.0454509 2.3350453 2.3350453s-1.0454509 2.3350453-2.3350453 2.3350453-2.3350453-1.0454509-2.3350453-2.3350453 1.0454509-2.3350453 2.3350453-2.3350453zm3.7083471-2.26217693c-.4602416 0-.8333471.37307796-.8333471.83331953 0 .4602416.3731055.8333471.8333471.8333471s.8333196-.3731055.8333196-.8333471c0-.46024157-.373078-.83331953-.8333196-.83331953z" fill-rule="evenodd"/></svg>

<?xml version="1.0" encoding="UTF-8"?>
<svg width="28px" height="28px" viewBox="0 0 28 28" version="1.1" xmlns="http://www.w3.org/2000/svg" xmlns:xlink="http://www.w3.org/1999/xlink">
    <!-- Generator: Sketch 62 (91390) - https://sketch.com -->
    <title>Combined Shape</title>
    <desc>Created with Sketch.</desc>
    <g id="Social-Icons" stroke="none" stroke-width="1" fill="none" fill-rule="evenodd">
        <g id="social-icons" transform="translate(-220.000000, -40.000000)" fill="#000000">
            <g id="instagram" transform="translate(220.000000, 40.000000)">
                <path d="M14,0 C21.7319865,0 28,6.2680135 28,14 C28,21.7319865 21.7319865,28 14,28 C6.2680135,28 0,21.7319865 0,14 C0,6.2680135 6.2680135,0 14,0 Z M14.8851003,7.00090704 L13.1148742,7.00090704 C11.9954102,7.00378999 11.7247835,7.01425197 11.113909,7.0421244 C10.3688128,7.07613513 9.85998559,7.19445023 9.41470623,7.36750483 C8.95439434,7.5463946 8.56402119,7.78574788 8.17487064,8.17489843 C7.7857201,8.56404898 7.54636681,8.95442213 7.36747704,9.41473401 C7.19442245,9.86001338 7.07610734,10.3688406 7.04209661,11.1139367 C7.01422418,11.7247885 7.00378081,11.9954297 7.00090462,13.1148997 L7.00090462,13.1148997 L7.00090462,14.8851281 C7.00378081,16.0045981 7.01422418,16.2752392 7.04209661,16.886091 C7.07610734,17.6311872 7.19442245,18.1400144 7.36747704,18.5852938 C7.54636681,19.0455779 7.7857201,19.4359788 8.17487064,19.8251294 C8.56402119,20.2142799 8.95439434,20.4536332 9.41470623,20.632523 C9.85998559,20.8055776 10.3688128,20.9238927 11.113909,20.9579034 C11.8605334,20.9919697 12.0988864,21 13.9999861,21 C15.9010859,21 16.1394666,20.9919697 16.8860633,20.9579034 C17.6311594,20.9238927 18.1399866,20.8055776 18.585266,20.632523 C19.0455779,20.4536332 19.435951,20.2142799 19.8251016,19.8251294 C20.2142521,19.4359788 20.4536054,19.0456057 20.6324952,18.5852938 C20.8055498,18.1400144 20.9238649,17.6311872 20.9578756,16.886091 C20.9919419,16.1394944 21,15.9011136 21,14.0000139 C21,12.0989141 20.9919419,11.8605334 20.9578756,11.1139367 C20.9238649,10.3688406 20.8055498,9.86001338 20.6324952,9.41473401 C20.4536054,8.95442213 20.2142521,8.56404898 19.8251016,8.17489843 C19.435951,7.78574788 19.0455779,7.5463946 18.585266,7.36750483 C18.1399866,7.19445023 17.6311594,7.07613513 16.8860633,7.0421244 C16.2752115,7.01425197 16.0045703,7.00378999 14.8851003,7.00090704 L14.8851003,7.00090704 Z M16.8285729,8.30207744 C17.511066,8.33322616 17.8817107,8.44726213 18.1283996,8.54309792 C18.4551138,8.67008243 18.6883263,8.82179696 18.9332647,9.06673534 C19.178203,9.31167372 19.3299176,9.54488618 19.4568743,9.87160037 C19.5527379,10.1182893 19.6667738,10.488934 19.6979226,11.1713993 C19.7270075,11.8088921 19.7362792,12.0609397 19.7382671,13.3218158 L19.7382671,14.6782119 C19.7362792,15.9390876 19.7270075,16.1911319 19.6979226,16.8286007 C19.6667738,17.5110938 19.5527379,17.8817385 19.4568743,18.1284274 C19.3299176,18.4551416 19.178203,18.6883541 18.9332647,18.9332924 C18.6883263,19.1782308 18.4551138,19.3299454 18.1283996,19.4569021 C17.8817107,19.5527657 17.511066,19.6668016 16.8285729,19.6979503 C16.1912001,19.7270353 15.9391689,19.736307 14.6782234,19.7382949 L13.3217488,19.7382949 C12.0608033,19.736307 11.8087721,19.7270353 11.1713993,19.6979503 C10.4889062,19.6668016 10.1182615,19.5527657 9.87160037,19.4569021 C9.5448584,19.3299454 9.31164594,19.1782308 9.06670755,18.9332924 C8.82176917,18.6883541 8.67005464,18.4551416 8.54309792,18.1284274 C8.44723435,17.8817385 8.33319837,17.5110938 8.30204965,16.8286285 C8.27296472,16.1911357 8.26369297,15.9390881 8.26170515,14.678212 L8.26170515,13.3218159 C8.26369297,12.0609402 8.27296472,11.8088959 8.30204965,11.1714271 C8.33319837,10.488934 8.44723435,10.1182893 8.54309792,9.87160037 C8.67005464,9.54488618 8.82176917,9.31167372 9.06670755,9.06673534 C9.31164594,8.82179696 9.5448584,8.67008243 9.87160037,8.54309792 C10.1182615,8.44726213 10.4889062,8.33322616 11.1713715,8.30207744 C11.8088643,8.27299251 12.0609119,8.26372076 13.321788,8.26173293 L14.6781841,8.26173293 C15.9390598,8.26372076 16.1911041,8.27299251 16.8285729,8.30207744 Z M14.0138889,10.4166667 C12.0272067,10.4166667 10.4166667,12.0272067 10.4166667,14.0138889 C10.4166667,16.0005711 12.0272067,17.6111111 14.0138889,17.6111111 C16.0005711,17.6111111 17.6111111,16.0005711 17.6111111,14.0138889 C17.6111111,12.0272067 16.0005711,10.4166667 14.0138889,10.4166667 Z M14.0138889,11.6788436 C15.3034833,11.6788436 16.3489342,12.7242945 16.3489342,14.0138889 C16.3489342,15.3034833 15.3034833,16.3489342 14.0138889,16.3489342 C12.7242945,16.3489342 11.6788436,15.3034833 11.6788436,14.0138889 C11.6788436,12.7242945 12.7242945,11.6788436 14.0138889,11.6788436 Z M17.722236,9.41666667 C17.2619944,9.41666667 16.8888889,9.78974463 16.8888889,10.2499862 C16.8888889,10.7102278 17.2619944,11.0833333 17.722236,11.0833333 C18.1824776,11.0833333 18.5555556,10.7102278 18.5555556,10.2499862 C18.5555556,9.78974463 18.1824776,9.41666667 17.722236,9.41666667 Z" id="Combined-Shape"></path>
            </g>
        </g>
    </g>
</svg>
